X: 24414
T: Lovers Of Light
R: reel
M: 4/4
K: Aminor
|:GAAA cAAA|GAAA cAAA|GAAA cAAA|GAAA cAAA|
GAAA cAAA|GAAA cAAA|D2ADDAD2|D2ADDAD2:|
|:{^d}e3=d cAAA|GAAA cAAA|{^d}e3=d cAAA|GAAA cAAA|{^d}e3=d cAAA|
GAAA cAAA|1 eAdA AAeA|dAAA eAdA:|2 eAdA AAeA|dAAA egab||
|:c'bag a2ab|age2 e2de|geed eede|dcA2 A2ab|
c'bag a2ab|age2 e2de|geee aeee|1 geee ede/g/a/b/:|2 {a}b4b2ag||

